Sweet-Rainbow/icons/hb-icon.svg

<?xml version="1.0" encoding="UTF-8" standalone="no"?>
<!-- Generator: Gravit.io -->

<svg
   xmlns:dc="http://purl.org/dc/elements/1.1/"
   xmlns:cc="http://creativecommons.org/ns#"
   xmlns:rdf="http://www.w3.org/1999/02/22-rdf-syntax-ns#"
   xmlns:svg="http://www.w3.org/2000/svg"
   xmlns="http://www.w3.org/2000/svg"
   xmlns:sodipodi="http://sodipodi.sourceforge.net/DTD/sodipodi-0.dtd"
   xmlns:inkscape="http://www.inkscape.org/namespaces/inkscape"
   style="isolation:isolate"
   viewBox="0 0 36 36"
   width="48"
   height="48"
   version="1.1"
   id="svg16"
   sodipodi:docname="hb-icon.svg"
   inkscape:version="0.92.4 (5da689c313, 2019-01-14)">
  <metadata
     id="metadata22">
    <rdf:RDF>
      <cc:Work
         rdf:about="">
        <dc:format>image/svg+xml</dc:format>
        <dc:type
           rdf:resource="http://purl.org/dc/dcmitype/StillImage" />
        <dc:title></dc:title>
      </cc:Work>
    </rdf:RDF>
  </metadata>
  <defs
     id="defs20" />
  <sodipodi:namedview
     pagecolor="#ffffff"
     bordercolor="#666666"
     borderopacity="1"
     objecttolerance="10"
     gridtolerance="10"
     guidetolerance="10"
     inkscape:pageopacity="0"
     inkscape:pageshadow="2"
     inkscape:window-width="640"
     inkscape:window-height="480"
     id="namedview18"
     showgrid="false"
     inkscape:zoom="29.365243"
     inkscape:cx="25.325443"
     inkscape:cy="32"
     inkscape:current-layer="svg16"
     units="px" />
  <linearGradient
     id="_lgradient_5"
     x1="0"
     y1="0.5"
     x2="1"
     y2="0.5"
     gradientTransform="matrix(32.936,0,0,16.518,7.532,0)"
     gradientUnits="userSpaceOnUse">
    <stop
       offset="0%"
       stop-opacity="1"
       style="stop-color:rgb(67,233,123)"
       id="stop2" />
    <stop
       offset="97.82608695652173%"
       stop-opacity="1"
       style="stop-color:rgb(56,249,215)"
       id="stop4" />
  </linearGradient>
  <linearGradient
     id="_lgradient_6"
     x1="0"
     y1="0.5"
     x2="0.90748805"
     y2="0.92007786"
     gradientTransform="matrix(36.474,0,0,34.39,5.763,13.61)"
     gradientUnits="userSpaceOnUse">
    <stop
       offset="0%"
       stop-opacity="1"
       style="stop-color:rgb(247,241,7)"
       id="stop9" />
    <stop
       offset="83.88839793817618%"
       stop-opacity="1"
       style="stop-color:rgb(255,187,36)"
       id="stop11" />
  </linearGradient>
  <g
     id="g831"
     transform="matrix(0.74999848,0,0,0.74999848,3.648e-5,2.871657e-8)">
    <path
       id="path7"
       d="m 13.718,8.884 c 0.117,0.224 0.234,0.449 0.342,0.683 0.422,0.863 0.809,1.744 1.169,2.635 l 0.341,0.818 0.513,1.25 -2.491,1.034 -0.521,-1.241 -0.342,-0.827 c 0,-0.009 0,-0.009 0,-0.018 -0.342,-0.837 -0.701,-1.655 -1.097,-2.473 -1.16,-2.347 -2.536,-4.577 -4.1,-6.681 2.284,0.531 4.514,1.241 6.69,2.113 0.872,0.351 1.726,0.756 2.553,1.223 0.765,0.45 1.493,0.962 2.158,1.547 0.018,0.009 0.036,0.018 0.045,0.036 0.351,-1.232 0.782,-2.446 1.304,-3.624 0.89,-2.05 2.23,-3.884 3.92,-5.359 1.745,1.493 3.129,3.363 4.056,5.467 0.548,1.241 0.989,2.527 1.321,3.839 0.324,-0.251 0.648,-0.494 0.98,-0.737 0.801,-0.584 1.628,-1.142 2.482,-1.654 0.728,-0.441 1.484,-0.837 2.266,-1.187 1.618,-0.72 3.39,-1.052 5.161,-0.971 -1.475,1.951 -2.778,4.028 -3.884,6.213 -0.486,0.944 -0.89,1.933 -1.187,2.958 l -0.387,1.286 -2.58,-0.765 0.377,-1.294 c 0.351,-1.178 0.81,-2.32 1.376,-3.417 0.09,-0.171 0.18,-0.351 0.279,-0.531 -0.009,0.009 -0.018,0.009 -0.027,0.018 -0.783,0.468 -1.538,0.98 -2.275,1.52 -1.592,1.16 -3.102,2.419 -4.532,3.758 C 27.52,11.761 26.891,9.073 25.794,6.555 25.38,5.62 24.85,4.73 24.22,3.92 23.636,4.703 23.141,5.548 22.755,6.438 21.352,9.621 20.624,13.047 20.615,16.518 20.03,14.378 18.825,12.444 17.162,10.97 16.622,10.511 16.047,10.098 15.436,9.747 14.878,9.432 14.303,9.144 13.718,8.884 Z"
       style="fill:url(#_lgradient_5)"
       inkscape:connector-curvature="0" />
    <path
       id="path14"
       d="m 16.829,26.637 4.688,4.478 v 0 L 17.093,35.747 12.406,31.06 Z M 14.57,24.479 11.372,21.424 c -0.933,1.375 -1.441,3.009 -1.441,4.691 v 2.47 l 0.266,0.266 z m 8.959,-4.541 4.638,4.216 v 0 L 23.676,28.855 19.04,24.427 Z M 21.27,17.779 h -3.002 c -1.68,0 -3.312,0.506 -4.685,1.436 l 3.197,3.053 z m 2.507,15.494 4.479,4.278 v 0 l -4.622,4.737 v 0 l -4.331,-4.331 z m 6.703,-7.017 4.661,4.238 v 0 l -4.703,4.82 -4.502,-4.3 z M 14.534,42.951 c 1.149,0.574 2.427,0.88 3.734,0.88 h 2.491 v 0 0 L 17.145,40.217 Z M 12.037,41.04 C 10.683,39.518 9.931,37.542 9.931,35.494 v -2.49 l 5.004,5.003 z M 35.938,20.542 c 1.37,1.526 2.131,3.514 2.131,5.573 v 2.813 0 0 0 0 l -5.428,-4.934 3.229,-3.381 z m -2.507,-1.9 c -1.14,-0.563 -2.405,-0.863 -3.699,-0.863 h -3.928 l 4.524,4.112 z m 4.023,13.955 0.615,0.559 v 0 2.338 c 0,0 0,0 0,0.011 0,1.167 -0.157,2.334 -0.49,3.46 -0.228,0.785 -0.552,1.544 -0.972,2.241 v 0 0 L 32.698,37.473 Z M 25.353,45.003 c 0.135,0.276 0.21,0.585 0.21,0.913 v 0 c 0,1.15 -0.934,2.084 -2.084,2.084 v 0 H 18.268 C 14.954,48 11.766,46.676 9.421,44.342 7.086,41.997 5.763,38.808 5.763,35.494 v -9.379 c 0,-3.313 1.323,-6.502 3.658,-8.847 2.345,-2.334 5.533,-3.658 8.847,-3.658 h 11.464 c 3.314,0 6.502,1.324 8.847,3.658 2.335,2.345 3.658,5.534 3.658,8.847 v 9.379 c 0,1.564 -0.219,3.127 -0.656,4.638 -0.396,1.386 -1.022,2.709 -1.845,3.908 -0.771,1.136 -1.772,2.095 -2.939,2.824 -1.177,0.729 -2.532,1.125 -3.918,1.136 v 0 c -1.15,0.011 -2.094,-0.913 -2.105,-2.063 v 0 c -0.012,-1.151 0.913,-2.094 2.063,-2.106 v 0 c 0.553,-0.009 1.089,-0.14 1.574,-0.401 v 0 l -3.896,-3.721 -4.723,4.841 z"
       style="fill:url(#_lgradient_6);fill-rule:evenodd"
       inkscape:connector-curvature="0" />
  </g>
</svg>

<?xml version="1.0" encoding="UTF-8" standalone="no"?><!-- Generator: Gravit.io --><svg xmlns="http://www.w3.org/2000/svg" xmlns:xlink="http://www.w3.org/1999/xlink" style="isolation:isolate" viewBox="0 0 48 48" width="48pt" height="48pt"><linearGradient id="_lgradient_5" x1="0" y1="0.5" x2="1" y2="0.5" gradientTransform="matrix(32.936,0,0,16.518,7.532,0)" gradientUnits="userSpaceOnUse"><stop offset="0%" stop-opacity="1" style="stop-color:rgb(67,233,123)"/><stop offset="97.82608695652173%" stop-opacity="1" style="stop-color:rgb(56,249,215)"/></linearGradient><path d=" M 13.718 8.884 C 13.835 9.108 13.952 9.333 14.06 9.567 C 14.482 10.43 14.869 11.311 15.229 12.202 L 15.57 13.02 L 16.083 14.27 L 13.592 15.304 L 13.071 14.063 L 12.729 13.236 C 12.729 13.227 12.729 13.227 12.729 13.218 C 12.387 12.381 12.028 11.563 11.632 10.745 C 10.472 8.398 9.096 6.168 7.532 4.064 C 9.816 4.595 12.046 5.305 14.222 6.177 C 15.094 6.528 15.948 6.933 16.775 7.4 C 17.54 7.85 18.268 8.362 18.933 8.947 C 18.951 8.956 18.969 8.965 18.978 8.983 C 19.329 7.751 19.76 6.537 20.282 5.359 C 21.172 3.309 22.512 1.475 24.202 0 C 25.947 1.493 27.331 3.363 28.258 5.467 C 28.806 6.708 29.247 7.994 29.579 9.306 C 29.903 9.055 30.227 8.812 30.559 8.569 C 31.36 7.985 32.187 7.427 33.041 6.915 C 33.769 6.474 34.525 6.078 35.307 5.728 C 36.925 5.008 38.697 4.676 40.468 4.757 C 38.993 6.708 37.69 8.785 36.584 10.97 C 36.098 11.914 35.694 12.903 35.397 13.928 L 35.01 15.214 L 32.43 14.449 L 32.807 13.155 C 33.158 11.977 33.617 10.835 34.183 9.738 C 34.273 9.567 34.363 9.387 34.462 9.207 C 34.453 9.216 34.444 9.216 34.435 9.225 C 33.652 9.693 32.897 10.205 32.16 10.745 C 30.568 11.905 29.058 13.164 27.628 14.503 C 27.52 11.761 26.891 9.073 25.794 6.555 C 25.38 5.62 24.85 4.73 24.22 3.92 C 23.636 4.703 23.141 5.548 22.755 6.438 C 21.352 9.621 20.624 13.047 20.615 16.518 C 20.03 14.378 18.825 12.444 17.162 10.97 C 16.622 10.511 16.047 10.098 15.436 9.747 C 14.878 9.432 14.303 9.144 13.718 8.884 Z " fill="url(#_lgradient_5)"/><linearGradient id="_lgradient_6" x1="0" y1="0.5" x2="0.9074880558539661" y2="0.9200778838291643" gradientTransform="matrix(36.474,0,0,34.39,5.763,13.61)" gradientUnits="userSpaceOnUse"><stop offset="0%" stop-opacity="1" style="stop-color:rgb(247,241,7)"/><stop offset="83.88839793817618%" stop-opacity="1" style="stop-color:rgb(255,187,36)"/></linearGradient><path d=" M 16.829 26.637 L 21.517 31.115 L 21.517 31.115 L 17.093 35.747 L 12.406 31.06 L 16.829 26.637 Z  M 14.57 24.479 L 11.372 21.424 C 10.439 22.799 9.931 24.433 9.931 26.115 L 9.931 28.585 L 10.197 28.851 L 14.57 24.479 Z  M 23.529 19.938 L 28.167 24.154 L 28.167 24.154 L 23.676 28.855 L 19.04 24.427 L 23.529 19.938 Z  M 21.27 17.779 L 18.268 17.779 C 16.588 17.779 14.956 18.285 13.583 19.215 L 16.78 22.268 L 21.27 17.779 Z  M 23.777 33.273 L 28.256 37.551 L 28.256 37.551 L 23.634 42.288 L 23.634 42.288 L 19.303 37.957 L 23.777 33.273 L 23.777 33.273 Z  M 30.48 26.256 L 35.141 30.494 L 35.141 30.494 L 30.438 35.314 L 25.936 31.014 L 30.48 26.256 L 30.48 26.256 Z  M 14.534 42.951 C 15.683 43.525 16.961 43.831 18.268 43.831 L 20.759 43.831 L 20.759 43.831 L 20.759 43.831 L 17.145 40.217 L 14.534 42.951 L 14.534 42.951 Z  M 12.037 41.04 C 10.683 39.518 9.931 37.542 9.931 35.494 L 9.931 33.004 L 14.935 38.007 L 12.037 41.04 L 12.037 41.04 Z  M 35.938 20.542 C 37.308 22.068 38.069 24.056 38.069 26.115 L 38.069 28.928 L 38.069 28.928 L 38.069 28.928 L 38.069 28.928 L 38.069 28.928 L 32.641 23.994 L 35.87 20.613 L 35.938 20.542 L 35.938 20.542 Z  M 33.431 18.642 C 32.291 18.079 31.026 17.779 29.732 17.779 L 25.804 17.779 L 30.328 21.891 L 33.431 18.642 L 33.431 18.642 Z  M 37.454 32.597 L 38.069 33.156 L 38.069 33.156 L 38.069 35.494 C 38.069 35.494 38.069 35.494 38.069 35.505 C 38.069 36.672 37.912 37.839 37.579 38.965 C 37.351 39.75 37.027 40.509 36.607 41.206 L 36.607 41.206 L 36.607 41.206 L 32.698 37.473 L 37.454 32.597 L 37.454 32.597 L 37.454 32.597 Z  M 25.353 45.003 C 25.488 45.279 25.563 45.588 25.563 45.916 L 25.563 45.916 C 25.563 47.066 24.629 48 23.479 48 L 23.479 48 L 18.268 48 C 14.954 48 11.766 46.676 9.421 44.342 C 7.086 41.997 5.763 38.808 5.763 35.494 L 5.763 26.115 C 5.763 22.802 7.086 19.613 9.421 17.268 C 11.766 14.934 14.954 13.61 18.268 13.61 L 29.732 13.61 C 33.046 13.61 36.234 14.934 38.579 17.268 C 40.914 19.613 42.237 22.802 42.237 26.115 L 42.237 35.494 C 42.237 37.058 42.018 38.621 41.581 40.132 C 41.185 41.518 40.559 42.841 39.736 44.04 C 38.965 45.176 37.964 46.135 36.797 46.864 C 35.62 47.593 34.265 47.989 32.879 48 L 32.879 48 C 31.729 48.011 30.785 47.087 30.774 45.937 L 30.774 45.937 C 30.762 44.786 31.687 43.843 32.837 43.831 L 32.837 43.831 C 33.39 43.822 33.926 43.691 34.411 43.43 L 34.411 43.43 L 30.515 39.709 L 25.792 44.55 L 25.353 45.003 L 25.353 45.003 L 25.353 45.003 Z " fill-rule="evenodd" fill="url(#_lgradient_6)"/></svg>
